svgs/matchfur.svg

<svg width="192" height="192" viewBox="0 0 192 192" fill="none" xmlns="http://www.w3.org/2000/svg">
<path d="M76.3315 53.5743C82.4654 52.0207 89.0383 52.5931 97.5567 55.1775C100.628 56.1093 104.229 54.5626 103.684 51.3995C103.267 48.9829 102.05 45.574 99.5 40C102.167 44.2298 104.429 47.1111 106.992 49.4418C110.432 52.5696 115.429 49.3943 115.753 44.7567C116.291 37.0716 118.504 29.0197 123.864 22.7053C125.504 20.7744 128.315 20.5067 130.5 21.7833C168.808 44.169 163.802 56.4949 161.48 79.0089C161.239 81.3382 165.272 83.0057 167.588 82.706C170.839 82.2852 171.657 86.1493 170.022 89C168.193 92.1885 166.368 94.731 164.146 96.9973C162.401 98.777 161.572 101.379 162.577 103.663C164.656 108.386 166.71 110.314 170.022 112.386C170.301 112.56 170.629 112.669 170.877 112.886C171.373 113.318 170.325 113.729 168.526 114.043C164.765 114.7 161.856 118.441 164.55 121.155C165.509 122.121 166.645 122.97 167.971 123.797C170.6 125.435 172.135 128.803 169.056 129.118C165.624 129.47 160.905 131.796 161.424 135.217C162.361 141.404 162.139 147.065 161.356 154.943C161.185 156.659 160.944 157.256 159.924 155.868C158.812 154.355 157.014 151.956 154.494 148.614C152.118 145.463 147.395 145.501 144.827 148.496C131.299 164.28 118.82 167.767 96.8373 170.882C96.2863 170.96 95.7137 170.96 95.1628 170.882C73.1799 167.755 60.7013 163.786 47.1732 148.002C44.6054 145.006 39.8823 144.969 37.5061 148.12C34.9856 151.462 33.1878 153.86 32.0758 155.373C31.0556 156.762 30.8149 156.164 30.6443 154.448C29.8613 146.571 29.6385 140.909 30.5762 134.723C31.0948 131.301 26.3765 128.975 22.9442 128.624C19.8653 128.309 21.3996 124.94 24.0287 123.302C25.3555 122.476 26.4906 121.627 27.45 120.66C30.1437 117.947 27.2351 114.205 23.4739 113.549C21.6748 113.235 20.6274 112.823 21.1228 112.391C21.3707 112.175 21.6993 112.066 21.9782 111.891C25.2904 109.819 27.3436 107.891 29.4226 103.168C30.4277 100.885 29.5985 98.2824 27.8539 96.5027C25.6323 94.2365 23.8649 91.782 22.0364 88.5935C20.4017 85.7428 21.2192 81.8787 24.4707 82.2995C26.786 82.5991 30.7607 80.8437 30.5205 78.5143C28.1984 56.0004 23.4444 44.169 61.7525 21.7833C63.9372 20.5067 66.7488 20.7744 68.3881 22.7053C75.9167 31.5732 76.7388 42.8927 76.3315 53.5743ZM76.3315 53.5743C70.9962 54.9257 61.6612 56.6157 55.9987 61.2588C54.5158 62.4747 53.8092 64.5953 55.5 65.5C57.9361 66.8035 67.2407 68.915 75.4506 69.9935C66.0671 68.7765 49.959 78.2819 49.5 88.5935C49.3225 92.5809 51.7528 94.8747 55.5 93.5C67.7893 88.9916 113 91 120 82.2995" stroke="black" stroke-width="10" stroke-linecap="round" stroke-linejoin="round"/>
<path d="M89.5 142.973C89.8883 145.291 92.5168 146.371 95.2387 147.359C96.3859 147.775 97.6393 147.858 98.8083 147.508C101.693 146.643 104.424 145.354 105 142.973C105.203 142.135 89.3669 142.178 89.5 142.973Z" stroke="black" stroke-width="6" stroke-linecap="round" stroke-linejoin="round"/>
<path d="M76 118.5C76 123.194 74.2091 127 72 127C69.7909 127 68 123.194 68 118.5C68 113.806 69.7909 110 72 110C74.2091 110 76 113.806 76 118.5Z" stroke="black" stroke-width="8"/>
<path d="M124 118.5C124 123.194 122.209 127 120 127C117.791 127 116 123.194 116 118.5C116 113.806 117.791 110 120 110C122.209 110 124 113.806 124 118.5Z" stroke="black" stroke-width="8"/>
</svg>

<svg width="192" height="192" fill="none" xmlns="http://www.w3.org/2000/svg"><path d="M76.332 51.574c6.133-1.553 12.706-.98 21.225 1.604 3.071.931 6.672 1.385 6.127-1.778-.417-2.417-1.634-7.826-4.184-13.4 2.667 4.23 4.929 7.111 7.492 9.442 3.44 3.128 8.437-.048 8.761-4.685.538-7.685 2.751-13.737 8.111-20.052 1.64-1.93 4.451-2.198 6.636-.922 38.308 22.386 33.302 34.712 30.98 57.226-.241 2.33 3.792 3.997 6.108 3.697 3.251-.42 4.069 3.443 2.434 6.294-1.829 3.189-3.654 5.731-5.876 7.997-1.745 1.78-2.574 4.382-1.569 6.666 2.079 4.723 4.133 6.651 7.445 8.723.279.174.607.283.855.5.496.432-.552.843-2.351 1.157-3.761.657-6.67 4.398-3.976 7.112.959.966 2.095 1.815 3.421 2.642 2.629 1.638 4.164 5.006 1.085 5.321-3.432.352-8.151 2.678-7.632 6.099.937 6.187.715 11.848-.068 19.726-.171 1.716-.412 2.313-1.432.925a846.83 846.83 0 0 0-5.43-7.254c-2.376-3.151-7.099-3.113-9.667-.118-13.528 15.784-26.007 19.271-47.99 22.386a6.02 6.02 0 0 1-1.674 0c-21.983-3.127-34.462-7.096-47.99-22.88-2.568-2.996-7.29-3.033-9.667.118a841.662 841.662 0 0 0-5.43 7.253c-1.02 1.389-1.261.791-1.432-.925-.783-7.877-1.005-13.539-.068-19.725.519-3.422-4.2-5.748-7.632-6.099-3.079-.315-1.544-3.684 1.085-5.322 1.326-.826 2.462-1.675 3.421-2.642 2.694-2.713-.215-6.455-3.976-7.111-1.8-.314-2.847-.726-2.351-1.158.248-.216.576-.325.855-.5 3.312-2.072 5.366-4 7.445-8.723 1.005-2.283.176-4.886-1.57-6.665-2.22-2.266-3.988-4.721-5.817-7.91-1.634-2.85-.817-6.714 2.435-6.294 2.315.3 6.29-1.455 6.05-3.785C28.197 56 23.444 44.17 61.752 21.784c2.185-1.277 4.997-1.01 6.636.921 7.529 8.868 8.35 18.188 7.944 28.87Zm0 0c-5.336 1.352-14.67 5.042-20.333 9.685C54.516 62.475 56.049 71 75.5 71c-8.45 0-25.541 7.282-26 17.594-.178 3.987 2.253 6.28 6 4.906C67.79 88.992 113 91 120 82.3" stroke="#000" stroke-width="10" stroke-linecap="round" stroke-linejoin="round"/><path d="M89.5 142.973c.388 2.318 3.017 3.398 5.739 4.386 1.147.416 2.4.499 3.57.149 2.884-.865 5.615-2.154 6.191-4.535.203-.838-15.633-.795-15.5 0Z" stroke="#000" stroke-width="6" stroke-linecap="round" stroke-linejoin="round"/><path d="M76 118.5c0 4.694-1.79 8.5-4 8.5s-4-3.806-4-8.5 1.79-8.5 4-8.5 4 3.806 4 8.5Zm48 0c0 4.694-1.791 8.5-4 8.5s-4-3.806-4-8.5 1.791-8.5 4-8.5 4 3.806 4 8.5Z" stroke="#000" stroke-width="8"/></svg>
